X:1
L:1/8
M:2/4
K:F
""^A"" B3 A | G2 B2 | g2 c2 | a3 g | f2 c2 | f4 | e3 d | c2 e2 | Bc ag | f3 d | c2 f2 | !fermata!A4 | 
 B3 A | G2 B2 | g2 c2 | a3 g | f2 c2 | f4 | e3 d | c2 e2 | Bc af | !fermata!f4 || 
[M:3/4]""^B"" Bg eg Bc/B/ | Af af AG/A/ | Be ge B/c/ a/g/ | f>d cf A2 | Bg eg Bc/B/ | Af af AG/A/ | 
 Be ge B/c/ a/g/ | f4 z2 ||[M:3/4]""^C"" B>c | dB b2 a>g | fA cc' a/c/ a/f/ | eG cc' b/c/ a/g/ | 
 fA c2 B>c | dB b2 a>g | fA cc' a/c/ a/f/ | eG cc' b/c/ a/g/ | f4 z2 |]
